icons/svg/multiplication.svg

﻿<?xml version="1.0" encoding="utf-8"?>
<!DOCTYPE svg PUBLIC "-//W3C//DTD SVG 1.1//EN" "http://www.w3.org/Graphics/SVG/1.1/DTD/svg11.dtd">
<svg xmlns="http://www.w3.org/2000/svg" xmlns:xlink="http://www.w3.org/1999/xlink" version="1.1" baseProfile="full" width="24" height="24" viewBox="0 0 24.00 24.00" enable-background="new 0 0 24.00 24.00" xml:space="preserve">
	<path fill="#000000" fill-opacity="1" stroke-linejoin="round" d="M 11,3L 13,3L 12.9924,10.269L 19.2895,6.64209L 20.2895,8.37414L 14,11.9967L 20.2989,15.6421L 19.2989,17.3741L 12.9888,13.7223L 12.9813,21L 10.9813,21L 10.9888,13.731L 4.69172,17.3579L 3.69172,15.6259L 10,11.9925L 3.71982,8.35791L 4.71982,6.62586L 10.9924,10.2561L 11,3 Z "/>
</svg>

<svg xmlns="http://www.w3.org/2000/svg" version="1.1" baseProfile="full" width="24" height="24" viewBox="0 0 24.00 24.00" xml:space="preserve"><path fill="#000" fill-opacity="1" stroke-linejoin="round" d="M11 3h2l-.008 7.27L19.29 6.64l1 1.732L14 11.997l6.3 3.645-1 1.732-6.31-3.652L12.98 21h-2l.01-7.27L4.69 17.36l-1-1.732L10 11.993 3.72 8.357l1-1.732 6.272 3.63L11 3z"/></svg>
